X:1
T:Title
%%score { ( 1 3 ) | ( 2 4 ) }
L:1/8
M:4/4
K:F
V:1 treble nm="Grand Piano"
V:3 treble 
V:2 bass 
V:4 bass 
V:1
 z4 z2[Q:1/4=76] [DB][_Ec] | [Fd][DF][DF][_EG] [DF][B,D][DF][DB] | %2
 [Fd][DF][DF][_EG] [DF]2 [DG][DF] | _Eccd cAGF |[M:3/4] [DB]2 [_EB]2 [DB]2 |[M:1/4] [DB][_Ec] | %6
[M:4/4] [Fd][DF][DF][^CE] [DF][FB]cd | [G_e]GG^F G2 AG | FEFd cF A<c |[M:3/4] [DB]6 | %10
[M:1/4] [B,F][K:bass][G,B,E] |[M:4/4] z4[K:treble] c2 [_Ec]2 | %12
 [DF][^CE][DF][CE] [DF]2 [B,F][K:bass][G,B,E] | z2[K:treble] [_Ec]2 z4 |[M:3/4] [Fd]6 | %15
[M:1/4] [DB][_Ec] |[M:4/4] [Fd][DF][DF][^CE] [DF][FB]cd | [G_e]GG^F G2 AG | FEFd cF A<c | %19
[M:7/4] [DB]6 z2 z2 z4 |] %20
V:2
 z4 z2 [B,,B,][B,,B,] | [B,,B,][B,,B,][B,,B,][B,,B,] [B,,B,][B,,F,][B,,B,][B,,B,] | %2
 [B,,B,][B,,B,][B,,B,][B,,B,] [B,,B,]2 [B,,B,][B,,B,] | %3
 [F,A,C][F,A,_E][F,A,E][F,A,F] [F,A,E][F,CE][F,B,E][F,A,E] |[M:3/4] [B,,B,]2 [B,,G,]2 [B,,F,]2 | %5
[M:1/4] [B,,F,][B,,F,] |[M:4/4] [B,,B,][B,,B,][B,,B,][B,,B,] [B,,B,][D,B,][K:treble][F,A,F][B,F] | %7
 [_E,B,][E,B,_E][E,B,E][E,A,E] [E,B,E]2 [B,^C][E,B,C] | %8
 [F,B,D][F,B,^C][F,B,D][F,B,F] [F,A,_E][F,A,E] [F,=CE]<[F,E] |[M:3/4] [B,,F,]6 |[M:1/4] D,^C, | %11
[M:4/4] z4 [A,_E]2 z2 | [B,,B,][B,,B,][B,,B,][B,,B,] [B,,B,]2 D,^C, | %13
 C,F,, .[A,,F,]2 [F,A,_E][_E,CF][D,B,][C,A,] |[M:3/4] [B,,B,]6 |[M:1/4] [B,,F,][B,,F,] | %16
[M:4/4] [B,,B,][B,,B,][B,,B,][B,,B,] [B,,B,][D,B,][K:treble][F,A,F][B,F] | %17
 [_E,B,][E,B,_E][E,B,E][E,A,E] [E,B,E]2 [B,^C][E,B,C] | %18
 [F,B,D][F,B,^C][F,B,D][F,B,F] [F,A,_E][F,A,E] [F,=CE]<[F,E] |[M:7/4] [B,,F,]6 z2 z2 z4 |] %20
V:3
 x8 | x8 | x8 | x8 |[M:3/4] x6 |[M:1/4] x2 |[M:4/4] x8 | x8 | x8 |[M:3/4] x6 |[M:1/4] x[K:bass] x | %11
[M:4/4] [F,A,_E]2 [F,CE]2[K:treble] z F,B,C | x7[K:bass] x | [F,A,_E]2[K:treble] z C, cAFF | %14
[M:3/4] x6 |[M:1/4] x2 |[M:4/4] x8 | x8 | x8 |[M:7/4] x14 |] %20
V:4
 x8 | x8 | x8 | x8 |[M:3/4] x6 |[M:1/4] x2 |[M:4/4] x6[K:treble] x2 | x8 | x8 |[M:3/4] x6 | %10
[M:1/4] x2 |[M:4/4] C,E,,A,,C, F,E,,[G,,G,][A,,A,] | x8 | x8 |[M:3/4] x6 |[M:1/4] x2 | %16
[M:4/4] x6[K:treble] x2 | x8 | x8 |[M:7/4] x14 |] %20

